blockchains/ethereum/assets/0x27702a26126e0B3702af63Ee09aC4d1A084EF628/logo.svg

<svg fill="none" height="250" viewBox="0 0 250 250" width="250" xmlns="http://www.w3.org/2000/svg" xmlns:xlink="http://www.w3.org/1999/xlink"><clipPath id="a"><path d="m0 0h250v250h-250z"/></clipPath><g clip-path="url(#a)"><path clip-rule="evenodd" d="m219.906 206.353c18.76-21.864 30.094-50.285 30.094-81.353 0-69.0356-55.964-125-125-125-31.0568 0-59.4683 11.3261-81.3293 30.0731l12.197 12.197c3.492 3.4919 3.492 9.1056 0 12.5534-3.492 3.492-9.1057 3.492-12.5534 0l-12.2911-12.2479c-19.3137 22.0032-31.0232 50.8463-31.0232 82.4244 0 69.036 55.9644 125 125 125 31.578 0 60.421-11.709 82.424-31.023l-13.247-13.247c-3.492-3.492-3.492-9.106 0-12.553 3.447-3.492 9.061-3.492 12.553 0zm-63.478-25.774c6.94 6.94 18.211 6.94 25.151 0s6.94-18.211 0-25.151-18.211-6.94-25.151 0-6.94 18.211 0 25.151zm-25.151 12.553-25.151 25.151c-3.448 3.492-3.448 9.106 0 12.554 3.447 3.492 9.061 3.492 12.553 0l25.151-25.151c3.492-3.448 3.492-9.062 0-12.554-3.448-3.492-9.061-3.492-12.553 0zm-62.8559-100.5598c6.9398 6.9398 18.2114 6.9398 25.1511 0 6.9398-6.9397 6.9398-18.2113 0-25.1511-6.9397-6.9397-18.2113-6.9397-25.1511 0-6.9397 6.9398-6.9397 18.2114 0 25.1511zm62.8559-75.4532-25.151 25.1511c-3.448 3.4919-3.448 9.1056 0 12.5534 3.447 3.492 9.061 3.492 12.553 0l25.151-25.1511c3.492-3.4478 3.492-9.0614 0-12.5534-3.448-3.492-9.061-3.492-12.553 0zm12.597 113.158-25.151-25.151c-3.492-3.448-9.105-3.448-12.553 0-3.492 3.447-3.492 9.061 0 12.553l25.151 25.151c3.448 3.492 9.061 3.448 12.553 0s3.492-9.061 0-12.553z" fill="#0054ff" fill-rule="evenodd"/></g></svg>

<svg width="250" height="250" viewBox="0 0 250 250" fill="none" xmlns="http://www.w3.org/2000/svg">
<g clip-path="url(#clip0_44_10134)">
<path fill-rule="evenodd" clip-rule="evenodd" d="M219.906 206.353C238.666 184.489 250 156.068 250 125C250 55.9644 194.036 0 125 0C93.9432 0 65.5317 11.3261 43.6707 30.0731L55.8677 42.2701C59.3597 45.762 59.3597 51.3757 55.8677 54.8235C52.3757 58.3155 46.762 58.3155 43.3143 54.8235L31.0232 42.5756C11.7095 64.5788 0 93.4219 0 125C0 194.036 55.9644 250 125 250C156.578 250 185.421 238.291 207.424 218.977L194.177 205.73C190.685 202.238 190.685 196.624 194.177 193.177C197.624 189.685 203.238 189.685 206.73 193.177L219.906 206.353ZM156.428 180.579C163.368 187.519 174.639 187.519 181.579 180.579C188.519 173.639 188.519 162.368 181.579 155.428C174.639 148.488 163.368 148.488 156.428 155.428C149.488 162.368 149.488 173.639 156.428 180.579ZM131.277 193.132L106.126 218.283C102.678 221.775 102.678 227.389 106.126 230.837C109.573 234.329 115.187 234.329 118.679 230.837L143.83 205.686C147.322 202.238 147.322 196.624 143.83 193.132C140.382 189.64 134.769 189.64 131.277 193.132ZM68.4211 92.5722C75.3609 99.512 86.6325 99.512 93.5722 92.5722C100.512 85.6325 100.512 74.3609 93.5722 67.4211C86.6325 60.4814 75.3609 60.4814 68.4211 67.4211C61.4814 74.3609 61.4814 85.6325 68.4211 92.5722ZM131.277 17.119L106.126 42.2701C102.678 45.762 102.678 51.3757 106.126 54.8235C109.573 58.3155 115.187 58.3155 118.679 54.8235L143.83 29.6724C147.322 26.2246 147.322 20.611 143.83 17.119C140.382 13.627 134.769 13.627 131.277 17.119ZM143.874 130.277L118.723 105.126C115.231 101.678 109.618 101.678 106.17 105.126C102.678 108.573 102.678 114.187 106.17 117.679L131.321 142.83C134.769 146.322 140.382 146.278 143.874 142.83C147.366 139.382 147.366 133.769 143.874 130.277Z" fill="#0054FF"/>
</g>
<defs>
<clipPath id="clip0_44_10134">
<rect width="250" height="250" fill="white"/>
</clipPath>
</defs>
</svg>
